!!!COM: Palestrina, Giovanni Perluigi da
!!!OPR: Missa In majoribus duplicibus
!!!OTL: Agnus II
**kern	**kern	**kern	**kern	**kern
*Ibass	*Itenor	*Icalto	*Icalto	*Icant
!Bassus	!Tenor	!Altus 2	!Altus 1	!Cantus
*clefF4	*clefGv2	*clefG2	*clefG2	*clefG2
*k[]	*k[]	*k[]	*k[]	*k[]
*?:X	*?:X	*?:X	*?:X	*?:X
*M4/2	*M4/2	*M4/2	*M4/2	*M4/2
=1	=1	=1	=1	=1
0r	0r	0f	0r	0r
=2	=2	=2	=2	=2
0r	0r	1d	0r	0f
.	.	4B-	.	.
.	.	4c	.	.
.	.	4d	.	.
.	.	4e	.	.
=3	=3	=3	=3	=3
0r	0F	4f	0r	1a
.	.	4e	.	.
.	.	4f	.	.
.	.	4g	.	.
.	.	2a	.	1cc
.	.	[2f	.	.
=4	=4	=4	=4	=4
0r	1A	2f]	0c	1a
.	.	4e	.	.
.	.	4d	.	.
.	1c	1e	.	1g
=5	=5	=5	=5	=5
0r	1A	2c	1e	1cc
.	.	1cc	.	.
.	1G	.	1g	1dd
.	.	2b-	.	.
=6	=6	=6	=6	=6
0r	1c	2a	1e	1cc
.	.	2g	.	.
.	1d	2.f	1d	2b-
.	.	.	.	2a
.	.	4d	.	.
=7	=7	=7	=7	=7
0r	[0c	4e	1g	0cc
.	.	4f	.	.
.	.	1g	.	.
.	.	.	1a	.
.	.	[2f	.	.
=8	=8	=8	=8	=8
0r	1c_	2f]	0g	1r
.	.	4e	.	.
.	.	4d	.	.
.	1c_	1e	.	1cc
=9	=9	=9	=9	=9
0F	0c]	1f	1cc	1a
.	.	2r	1a	2.f
.	.	[2f	.	.
.	.	.	.	4g
=10	=10	=10	=10	=10
1D	1r	2f]	1f	1a
.	.	1d	.	.
4BB-	1F	.	2b-	1dd
4C	.	.	.	.
4D	.	[2f	[2a	.
4E	.	.	.	.
=11	=11	=11	=11	=11
4F	1A	4f]	4a]	1.cc
4E	.	4g	4g	.
4F	.	2.a	2f	.
4G	.	.	.	.
1A	1c	.	2e	.
.	.	4g	.	.
.	.	2e	2c	2a
=12	=12	=12	=12	=12
1F	1A	1f	0cc	4a
.	.	.	.	4b-
.	.	.	.	4cc
.	.	.	.	4dd
[1C	1G	2e	.	4ee
.	.	.	.	4ff
.	.	4c	.	4gg
.	.	4d	.	4ff
=13	=13	=13	=13	=13
1C]	1c	4e	[0g	4ee
.	.	4f	.	4dd
.	.	2.g	.	1cc
1G	1d	.	.	.
.	.	4f	.	.
.	.	2d	.	2b
=14	=14	=14	=14	=14
1r	2c	1e	1g]	1cc
.	1c	.	.	.
1F	.	1f	1r	1a
.	[2d	.	.	.
=15	=15	=15	=15	=15
1G	2d]	1r	0r	1b-
.	1e	.	.	.
1A	.	1c	.	1cc
.	[2f	.	.	.
=16	=16	=16	=16	=16
1.B-	4f]	2d	1r	1f
.	4e	.	.	.
.	4d	4B-	.	.
.	4c	4c	.	.
.	2B-	4d	1f	1r
.	.	4e	.	.
2A	2c	[2f	.	.
=17	=17	=17	=17	=17
1G	2d	2f]	1g	1r
.	2B-	2e	.	.
1F	1c	2f	1a	1cc
.	.	2a	.	.
=18	=18	=18	=18	=18
0r	1r	1g	1b-	1dd
.	1c	1r	2a	1ee
.	.	.	2g	.
=19	=19	=19	=19	=19
0r	2.d	0r	2f	1.ff
.	.	.	2.a	.
.	4e	.	.	.
.	2f	.	.	.
.	.	.	4b-	.
.	2c	.	[2cc	2ee
=20	=20	=20	=20	=20
1r	2.g	2r	2cc]	1dd
.	.	1g	2b	.
.	4f	.	.	.
1c	4e	.	1cc	1cc
.	4d	.	.	.
.	[2c	2e	.	.
=21	=21	=21	=21	=21
2A	2c]	2f	1r	0r
2B-	2d	2.g	.	.
2.c	1e	.	1g	.
.	.	4f	.	.
.	.	4e	.	.
4B-	.	4d	.	.
=22	=22	=22	=22	=22
4A	0r	2.c	1.a	2r
4G	.	.	.	.
1F	.	.	.	2ff
.	.	4B-	.	.
.	.	2A	.	2dd
2E	.	[2c	2g	2ee
=23	=23	=23	=23	=23
1D	0r	2c]	2.f	1.ff
.	.	2B	.	.
.	.	.	4g	.
1C	.	1c	2a	.
.	.	.	2g	2ee
=24	=24	=24	=24	=24
0r	2r	0r	2b-	2dd
.	2f	.	1a	2cc
.	2d	.	.	1b-
.	2e	.	2g	.
=25	=25	=25	=25	=25
1r	2.f	2r	1a	4a
.	.	.	.	4b-
.	.	1f	.	4cc
.	4e	.	.	4a
1B-	4d	.	1r	2.dd
.	4c	.	.	.
.	[2B-	2d	.	.
.	.	.	.	4cc
=26	=26	=26	=26	=26
2G	2B-]	2e	1r	2b-
2A	2c	2.f	.	4a
.	.	.	.	4g
[1B-	1d	.	2r	1f
.	.	4e	.	.
.	.	4d	2f	.
.	.	4c	.	.
=27	=27	=27	=27	=27
2B-]	1r	2B-	2d	2r
4A	.	1c	2e	2cc
4G	.	.	.	.
1F	2r	.	4f	2a
.	.	.	4e	.
.	2f	2A	4d	2a
.	.	.	4c	.
=28	=28	=28	=28	=28
1G	2d	2r	2.B-	1b-
.	2e	2G	.	.
.	.	.	4c	.
2.D	[1f	[1A	1d	2.a
4E	.	.	.	4g
=29	=29	=29	=29	=29
2F	2f]	2A]	2c	4a
.	.	.	.	4b-
2C	2e	1G	2.g	1cc
1G	1d	.	.	.
.	.	.	4f	.
.	.	[2g	2d	2b
=30	=30	=30	=30	=30
0C	0c	4g]	2.e	0cc
.	.	4f	.	.
.	.	4e	.	.
.	.	4d	4f	.
.	.	1e	1g	.
=31	=31	=31	=31	=31
0r	0d	1f	1r	1a
.	.	1r	1f	1b-
=32	=32	=32	=32	=32
0r	1e	0r	1g	1.cc
.	[1f	.	2a	.
.	.	.	2b-	2b-
=33	=33	=33	=33	=33
0r	2f]	1r	1cc	2a
.	2e	.	.	2g
.	2.d	1a	2r	[1f
.	.	.	2f	.
.	4c	.	.	.
=34	=34	=34	=34	=34
0r	2B-	1b-	4d	1f]
.	.	.	4e	.
.	2d	.	1f	.
.	1c	1cc	.	1g
.	.	.	2e	.
=35	=35	=35	=35	=35
1r	0F	2cc	0f	1.a
.	.	1c	.	.
1A	.	.	.	.
.	.	[2f	.	4g
.	.	.	.	4f
=36	=36	=36	=36	=36
1B-	0r	2f]	0r	1g
.	.	4e	.	.
.	.	4d	.	.
[1c	.	[1e	.	[1g
=37	=37	=37	=37	=37
2c]	2r	2e]	0r	1g]
2B-	2d	2d	.	.
2A	1e	2c	.	1r
2G	.	2B-	.	.
=38	=38	=38	=38	=38
1F	2.f	1c	1a	0r
.	4e	.	.	.
1G	1d	2.g	1b-	.
.	.	4f	.	.
=39	=39	=39	=39	=39
1.A	2.c	4e	1.cc	0r
.	.	4d	.	.
.	.	2.e	.	.
.	4B-	.	.	.
.	2c	.	.	.
.	.	4c	.	.
4G	2d	[2f	4b-	.
4F	.	.	4a	.
=40	=40	=40	=40	=40
1G	1B-	2f]	2b-	0r
.	.	2e	2g	.
1F	1c	2f	1a	.
.	.	2a	.	.
=41	=41	=41	=41	=41
1G	0r	1b	0g	1dd
1C	.	2.cc	.	1ee
.	.	4b-	.	.
=42	=42	=42	=42	=42
1F	1A	2.a	1c	0ff
.	.	4g	.	.
1D	1B-	2f	1d	.
.	.	2d	.	.
=43	=43	=43	=43	=43
0C	1.c	1g	2.e	1.ee
.	.	.	4f	.
.	.	1e	1g	.
.	2B-	.	.	2dd
=44	=44	=44	=44	=44
0F	2A	1f	2a	2cc
.	2G	.	2b-	2b-
.	1F	[1c	[1cc	1a
=45	=45	=45	=45	=45
1E	1G	1c]	2cc]	1g
.	.	.	2b-	.
1F	[1A	[1c	2.a	4f
.	.	.	.	4g
.	.	.	.	4a
.	.	.	8g	4b-
.	.	.	8f	.
=46	=46	=46	=46	=46
0C	2A]	2c]	2e	0cc
.	4G	2c	1f	.
.	4F	.	.	.
.	1G	1c	.	.
.	.	.	2e	.
=47	=47	=47	=47	=47
0F	0F	0c	0f	0a
==	==	==	==	==
*-	*-	*-	*-	*-
!!!CDT: 1525/^1526/-1594/2/2
!!!OCY: Italia
!!!AGN: Mass (Paraphrase)
!!!AST: renaissance, vocal
!!!ASW: Gregorian Mass
!!!PWK: Masses, Book 7
!!!RNB: Cadence finals: E,C,G,D,F
!!!YOR: Le Opere Complete, v. 23, p. 149
!!!YOO: Rome, Italy: Fratelli Scalera
!!!END: 1992//
!!!EED: John Miller
!!!YEC: Copyright 2000, John Miller
!!!YEN: United States of America
!!!YEM: Rights to all derivative electronic formats reserved.
!!!YEM: Refer to licensing agreement for further details.
!!!YEM: This file must be accompanied by the licensing agreement.
!!!YEM: A copy of the licensing agreement may be found at http://www.music-cog.ohio-state.edu/HumdrumDatabases/Palestrina/license.txt
!!!EMD: converted to Humdrum by Bret Aarden
